packages/calcite-ui-icons/icons/select-root-chart-nodes-24.svg

<?xml version="1.0" encoding="UTF-8"?><svg id="icons" xmlns="http://www.w3.org/2000/svg" viewBox="0 0 24 24"><defs><style>.cls-1{fill:none;}</style></defs><path d="M20,3h-2v-1h2v1ZM7,2h-2v1h2v-1ZM17,2h-3v1h3v-1ZM11,2h-3v1h3v-1ZM22,2h-1v1h1v1h1v-2h-1ZM22,7h1v-2h-1v2ZM22,20h1v-2h-1v2ZM22,13h1v-1h-1v1ZM13,2h-1v1h1v-1ZM18,23h2v-1h-2v1ZM5,23h2v-1h-2v1ZM14,23h3v-1h-3v1ZM8,23h3v-1h-3v1ZM12,23h1v-1h-1v1ZM22,11h1v-3h-1v3ZM22,17h1v-3h-1v3ZM3,5h-1v2h1v-2ZM3,18h-1v2h1v-2ZM3,12h-1v1h1v-1ZM3,8h-1v3h1v-3ZM3,14h-1v3h1v-3ZM12.5,3.79297l8.70703,8.70703-8.70703,8.70703L3.79297,12.5,12.5,3.79297ZM19.79297,12.5l-7.29297-7.29297-7.29297,7.29297,7.29297,7.29297,7.29297-7.29297ZM10.5,12.5l2,2,2-2-2-2-2,2ZM22,22h-1v1h2v-2h-1v1ZM3,21h-1v2h2v-1h-1v-1ZM3,3h1v-1h-2v2h1v-1Z"/><rect class="cls-1" width="24" height="24"/></svg>

<svg xmlns="http://www.w3.org/2000/svg" viewBox="0 0 24 24"><path d="M20 3h-2V2h2v1zM7 2H5v1h2V2zm10 0h-3v1h3V2zm-6 0H8v1h3V2zm11 0h-1v1h1v1h1V2h-1zm0 5h1V5h-1v2zm0 13h1v-2h-1v2zm0-7h1v-1h-1v1zM13 2h-1v1h1V2zm5 21h2v-1h-2v1zM5 23h2v-1H5v1zm9 0h3v-1h-3v1zm-6 0h3v-1H8v1zm4 0h1v-1h-1v1zm10-12h1V8h-1v3zm0 6h1v-3h-1v3zM3 5H2v2h1V5zm0 13H2v2h1v-2zm0-6H2v1h1v-1zm0-4H2v3h1V8zm0 6H2v3h1v-3zm9.5-10.207l8.707 8.707-8.707 8.707L3.793 12.5 12.5 3.793zm7.293 8.707L12.5 5.207 5.207 12.5l7.293 7.293 7.293-7.293zm-9.293 0l2 2 2-2-2-2-2 2zM22 22h-1v1h2v-2h-1v1zM3 21H2v2h2v-1H3v-1zM3 3h1V2H2v2h1V3z"/><path fill="none" d="M0 0h24v24H0z"/></svg>
